assets/azureclientapps/original.svg

<svg height="18" viewBox="0 0 18 18" width="18" xmlns="http://www.w3.org/2000/svg" xmlns:xlink="http://www.w3.org/1999/xlink"><linearGradient id="a" gradientUnits="userSpaceOnUse" x1="9" x2="9" y1="17" y2="1"><stop offset="0" stop-color="#0078d4"/><stop offset=".16" stop-color="#1380da"/><stop offset=".53" stop-color="#3c91e5"/><stop offset=".82" stop-color="#559cec"/><stop offset="1" stop-color="#5ea0ef"/></linearGradient><path d="m6.6 12.2h4.8v4.8h-4.8zm-5.6-6.4h4.8v-4.8h-4.13a.67.67 0 0 0 -.67.67zm.67 11.2h4.13v-4.8h-4.8v4.13a.67.67 0 0 0 .67.67m-.67-5.6h4.8v-4.8h-4.8zm11.2 5.6h4.13a.67.67 0 0 0 .67-.67v-4.13h-4.8zm-5.6-5.6h4.8v-4.8h-4.8zm5.6 0h4.8v-4.8h-4.8zm0-10.4v4.8h4.8v-4.13a.67.67 0 0 0 -.67-.67zm-5.6 4.8h4.8v-4.8h-4.8z" fill="url(#a)"/></svg>

<svg xmlns="http://www.w3.org/2000/svg" id="bb37ee11-1d78-42dc-9e68-1ef6f693c14b" width="18" height="18" viewBox="0 0 18 18"><defs><linearGradient id="a2546c3d-06f2-4d81-b3fa-b5b62d9f6f89" x1="9" x2="9" y1="17" y2="1" gradientUnits="userSpaceOnUse"><stop offset="0" stop-color="#0078d4"/><stop offset=".16" stop-color="#1380da"/><stop offset=".53" stop-color="#3c91e5"/><stop offset=".82" stop-color="#559cec"/><stop offset="1" stop-color="#5ea0ef"/></linearGradient></defs><title>Icon-intune-331</title><path fill="url(#a2546c3d-06f2-4d81-b3fa-b5b62d9f6f89)" d="M6.6 12.2h4.8V17H6.6ZM1 5.8h4.8V1H1.67a.67.67 0 0 0-.67.67ZM1.67 17H5.8v-4.8H1v4.13a.67.67 0 0 0 .67.67M1 11.4h4.8V6.6H1ZM12.2 17h4.13a.67.67 0 0 0 .67-.67V12.2h-4.8Zm-5.6-5.6h4.8V6.6H6.6Zm5.6 0H17V6.6h-4.8Zm0-10.4v4.8H17V1.67a.67.67 0 0 0-.67-.67ZM6.6 5.8h4.8V1H6.6Z"/></svg>
